icon-themes/breeze_svg/cmd/32/flowchartshapes.flowchart-summing-junction.svg

<svg viewBox="0 0 32 32" xmlns="http://www.w3.org/2000/svg"><path d="m16.015625 4.0117188a12 12 0 0 0 -7.7578125 2.8320312l7.7421875 7.742188 7.742188-7.742188a12 12 0 0 0 -7.726563-2.8320312zm9.146484 4.2402343-7.748047 7.7480469 7.746094 7.744141a12 12 0 0 0 .001953-15.4921879zm-18.3222652.0039063a12 12 0 0 0 -.0019532 15.4921876l7.7480474-7.748047zm9.1601562 9.1582026-7.7421875 7.742188a12 12 0 0 0 15.4843755 0z" fill="#4d4d4d"/></svg>

<svg xmlns="http://www.w3.org/2000/svg" viewBox="0 0 32 32">
 <path 
     style="fill:#4d4d4d" 
     d="M 16.015625 4.0117188 A 12 12 0 0 0 8.2578125 6.84375 L 16 14.585938 L 23.742188 6.84375 A 12 12 0 0 0 16.015625 4.0117188 z M 25.162109 8.2519531 L 17.414062 16 L 25.160156 23.744141 A 12 12 0 0 0 25.162109 8.2519531 z M 6.8398438 8.2558594 A 12 12 0 0 0 6.8378906 23.748047 L 14.585938 16 L 6.8398438 8.2558594 z M 16 17.414062 L 8.2578125 25.15625 A 12 12 0 0 0 23.742188 25.15625 L 16 17.414062 z "
     />
</svg>
